Newaita-dark/.DP/16/skype-status-disturb.svg

<svg xmlns="http://www.w3.org/2000/svg" xmlns:xlink="http://www.w3.org/1999/xlink" width="16px" height="16px" viewBox="0 0 16 16" version="1.1">
<g id="surface1">
<path style=" stroke:none;fill-rule:nonzero;fill:rgb(93.333334%,93.333334%,93.333334%);fill-opacity:1;" d="M 5.363281 2.101562 C 3.796875 2.101562 2.535156 3.363281 2.535156 4.929688 C 2.535156 5.402344 2.652344 5.847656 2.855469 6.238281 C 2.648438 6.808594 2.535156 7.425781 2.535156 8.070312 C 2.535156 11.03125 4.917969 13.414062 7.878906 13.414062 C 8.109375 13.414062 8.335938 13.398438 8.558594 13.371094 C 9.050781 13.789062 9.691406 14.042969 10.390625 14.042969 C 11.957031 14.042969 13.21875 12.78125 13.21875 11.214844 C 13.21875 10.738281 13.105469 10.292969 12.898438 9.902344 C 13.105469 9.332031 13.21875 8.714844 13.21875 8.070312 C 13.21875 5.109375 10.835938 2.726562 7.878906 2.726562 C 7.644531 2.726562 7.417969 2.742188 7.195312 2.769531 C 6.703125 2.351562 6.0625 2.101562 5.363281 2.101562 Z M 5.292969 7.402344 L 10.585938 7.402344 C 10.949219 7.402344 11.246094 7.695312 11.246094 8.0625 C 11.246094 8.429688 10.949219 8.726562 10.585938 8.726562 L 5.292969 8.726562 C 4.925781 8.726562 4.628906 8.429688 4.628906 8.0625 C 4.628906 7.695312 4.925781 7.402344 5.292969 7.402344 Z M 5.292969 7.402344 "/>
</g>
</svg>

<svg xmlns="http://www.w3.org/2000/svg" width="16pt" height="16pt" viewBox="0 0 16 16"><path d="M5.363 2.102a2.83 2.83 0 0 0-2.508 4.137 5.36 5.36 0 0 0-.32 1.831 5.331 5.331 0 0 0 6.024 5.301 2.823 2.823 0 0 0 1.832.672 2.822 2.822 0 0 0 2.828-2.828c0-.477-.114-.922-.32-1.313a5.36 5.36 0 0 0 .32-1.832 5.33 5.33 0 0 0-6.024-5.3 2.82 2.82 0 0 0-1.832-.668zm-.07 5.3h5.293a.663.663 0 0 1 0 1.324H5.293a.664.664 0 0 1-.664-.664.66.66 0 0 1 .664-.66zm0 0" fill="#bdbdbd"/></svg>
